X:1
T:William Byrd ~1540 - 1623
T:Puer natus est nobis
%%score [ 1 2 3 4 ]
L:1/8
Q:1/4=200
M:4/4
K:C
V:1 treble nm="Cantus primus" snm="Cantus primus"
V:2 treble nm="Contratenor" snm="Contratenor"
V:3 treble nm="Tenor" snm="Tenor"
V:4 treble nm="Bassus" snm="Bassus"
V:1
"^Q""^:""^U""^U" x2 ||[K:F] D8 A8 x4 | A8 G8 x2 | F4 D4 E4 F4 x4 | E8 z4 D6 x2 | E2 F8 D4 x2 | %6
w: |Pu- *|er na-|tus est no- *|bis, pu-|* * er|
w: ||||||
[M:4/2] E4 C4 D4 E6 | D2 D8 ^C4 D8 | z4 A4 c6 c2 x4 | A4 B6 A2 F4 x2 | G4 E4 D8 x2 | z4 A4 x8 | %12
w: na- tus est no|* * * bis,|Et fi- li-|us da- tus est|no- * bis,||
w: |||||et|
 c6 c2 A4 B6 | A2 F4 G8 F8 | z8 z16 | z4 F4 G4 A4 x4 | B2 A2 G4 A4 B4 x4 | c2 B2 A4 B4 A8 | %18
w: |||Cu- jus im-|pe- ri- um su- per|hu- me~- ~rum e- *|
w: fi- li- us da-|tus est no- bis,|||||
 G4 A4 F4 G4 | A4 B2 A2 G8 x2 | A4 =B4 c6"^(  )" _B2 x4 | A4 G8 x4 | G8 z4 c4 | B4 A6 B2 G4 | %24
w: * jus, cu- jus|im- pe- ri- um|su- per hu- me-|rum e-|jus, Et|vo- ca- bi- tur|
w: ||||||
 z4 F8 G4 | F4 E4 D8 | z4 G4 F4 E6 | F2 D4 z4 G4 x3 | A4 c6 A2 =B4 | c6"^(  )" B2 A2 G2 A8 | %30
w: no- men|e- * jus,|et vo- ca-|bi- tur, et|vo- ca- bi- tur|no- men e * *|
w: ||||||
 G4 A8 z4 | A4 G4 A2 x2- x10 | x2 c2 A4 G6 A2 | G8 z4 G8 | E4 F4 G8 x2 | G4 G4 E2 G4 A2 x8 | %36
w: * jus,|ma- gni con- si-|li- i An- ge-|lus, *||* * con- si- li-|
w: |||* ma-|gni con- si-|li- i, * * *|
 ^F4 ^G4 x4- x8 | x4 ^G4 A16 | z4 c4 A4 =B2 c4 | d2 =B4 c6"^(  )" _B2 A8 | z8 z4 G4 x2 | %41
w: i An- *|ge- lus,|ma- gni con- si-|li- i An- ge- lus,|ma-|
w: |||||
 E4 F2 G4 A2 ^F4 | G6"^(  )" F2 E8 | z4 A6 G2 E4 |"F#" x16 |]"^Versus" D4 F8 G4 | A6 A2 D6 G3 | %47
w: gni con- si- li- i|An- ge- lus,|An- ge *||Can- ta- te|Do- mi- no can-|
w: ||||||
 F D2 E4 D2 d3 c A2 x | B2 A2 A6 GF G4 x | A4 z2 A4 A2 c2 =B2 | c3 c A4"^(  )" B8 | %51
w: ti~- ~cum no- vum,~ ~can- ti~- ~cum|no * * * * *|vum, qui- a mi- ra-|bi- li- a fe-|
w: ||||
 A4 z2 A4 A2 d2 ^c2 | d3 d A4"^(  )" c8 | B8 A8 x || z4 A6 A2 A4 | A8 A8 | B4 A8 G4 | A8 A4 c8 | %58
w: cit, * * * *|||Glo- ri- a|Pa- tri|et Fi- li-|o, et Spi-|
w: * qui- a mi- ra-|bi- li- a fe-|* cit.|||||
 B4 A4 G2 G4 ^FE x2 | ^F4 G8 x8 | z4 G8 A4 x6 | B4 G4 A4 =B4 | c6 c2 G8 | z4 G4 B8 | A8 d16 | %65
w: ri- tu- i san * *|* cto,|Si- cut|e- rat in prin-|ci- pi- o,|et nunc|et sem-|
w: |||||||
 ^c16 | z8 z8 x8 | z4 A8 B4 | c6 B2 A4 A8 | F4 x16 | G4 E4 F6 E2 x2 | F2 G2 A8 G4 x4 | %72
w: per,||et in|sæ- cu- la sæ-|cu-|lo- rum. A- *||
w: |||||||
 A4 c8 B4 x4 | A6 G2 F4 E2 D2 x8 | ^C4 D4 E8 x2 |"^-" x16 x4 |] x28 |] %77
w: men, sae- cu-|lo- rum~ ~A * *||||
w: |||||
V:2
"^Q""^:" x2 ||[K:F] z4 D6 E2 F8 | D4 E4 C4 D2 A,4 | B,2 C2 A,2 D6 C2 C6 | B,A, B,2 G,2 A,8 A,6 | %5
w: |Pu- * *|er na~- ~tus est~ ~no-||* * * * bis, pu-|
w: |||||
 B,2 x14 |[M:4/2] C4 A,4 B,8 x2 | A,4 G,4 A,8 x6 | A,6 B,2 A,4 C8 | F,4 z4 D4 F6 | F2 E4 G6 F2 D4 | %11
w: er|na- tus est|no- * bis,|na- tus est no-|bis, Et fi-|li- us da- tus est|
w: ||||||
 E4 x4- x8 | x4 E4 F8 x2 | z4 C4 D4 E4 x6 | F2 E2 D4 C4 D8 x4 | ^C4 D8 z8 | z4 C4 D4 E4 x4 | %17
w: no- *|* bis,|Cu- jus im|pe- ri- um, im- pe-|ri- um,|cu- jus im-|
w: ||||||
 F2 E2 D4 x12 | E4 F4 G2 F2 E4 | D2 F2 E2 D2 C4 D4 x2 | G,4 z4 D4 D4 x4 | E2 E2 A,4 z2 G,2 C2 B,2 | %22
w: pe- ri- um|su- per hu- me~- ~rum|e * * * * *|jus, su- per|hu- me~- ~rum e * *|
w: |||||
 A,G,A,B, C6 =B,A, B,4 | C8 z4 C4 | D4 F6 D2 E4 | F4 C4 D4 C4 | z4 C4 B,4 A,6 | B,2 G,4 A,6 C2 D3 | %28
w: |jus, Et|vo- ca- bi- tur|no- men e- jus|||
w: ||||et vo- ca-|bi- tur no- men e|
 E F2 E2 D4 z2 G2 x3 | F4 E6 F2 D4 x4 | A4 G4 F2 E2 D2 E2 | F6 ED E8 x6 | ^F8 z8 | %33
w: * * * * et|vo- ca- bi- tur|no- men e * * *||jus,|
w: * * * jus, *|||||
 z4"^(  )" F4 D4 E2 F4 x2 | G2 E4 F4 D4 E4 | C6 B,A, G,4 G,12 | C8 A,4 E8 | z4 E4 C4 D2 E4 x6 | %38
w: ma- gni con- si-|li- i An- ge- lus,||An- ge- lus,|ma- gni con- si-|
w: ||An- * * ge- lus,|||
 F2 D4 E8 ^F4 | G4 z4 G4 E4 x6 | F2 G4 A2 ^F4 G6 |"^(  )" F2 E4 D4 x6 | ^C8 z4 D4 | %43
w: li- i An- ge-|lus, * *|||* ma-|
w: |* ma- gni|con- si- li- i An-|* * ge-|lus, *|
 =B,4 C2 D4 E2 ^C4 | F2 E2 D8 ^C4 |]"D" x16 | z4 D6 F4 E2 x | F3 F C2 D3 C A,2 B,4 | %48
w: gni con- si- li- i|An * * ge-||Can- ta- te|Do- mi~- ~no can- ti~- ~cum~ ~no-|
w: |||||
 A,2 A3 G E2 F8 x | E8 z2 D4 D2 | F2 E2 F3 F C4 z4 | z2 C4 C2 G2 D2 G3 G | F2 A3 G F2 E2 F3 D E2 | %53
w: vum, * * * *|* qui- a|mi- ra- bi- li- a,|qui- a mi- ra- bi- li-|a fe- * * cit, fe- * *|
w: * can- ti- cum no-|vum, * *||||
 D2 F3 G A3 G E3 F G3 || F F4 E2 F8 x | z4 F6 F2 E4 | D8 ^C8 | D4 F8 E4 x4 | F8 F4 E6 | %59
w: cit mi- ra- bi- li- a fe *|* * * cit.|Glo- ri- a|Pa- tri|et Fi- li-|o, et Spi-|
w: ||||||
 F2 F8 D4 D6 | C2 =B,8 x12 | z4 D8 D4 | D4 E4 C4 G4 | E6 E2 E8 | z8 z4 D4 x8 | %65
w: ri- tu- i san-|* cto,|Si- cut|e- rat in prin-|ci- pi- o,|et|
w: ||||||
 F6 E2 D3 C B,A,G,A, | B,2 A,4 G,2 A,8 x8 | z4 E8 F4 | G6 F2 E4 F8 | D4 F4 E4 F8 | C8 x10 | %71
w: nunc et~ ~sem * * * * *|* * * per|et in|sæ- cu- la sæ-|cu- lo~- ~rum. A-|men|
w: ||||||
 z8 z4 D6 x2 | E2 F6 E2 D4 E6 | F2 G6 F2 E2 D2 E6 x4 | D2 ^C2 D2 E2 F2 D8 | ^C4"^-" x16 |] x28 |] %77
w: Et|in sæ- cu- la sæ|cu- lo- rum A- * *||||
w: ||||||
V:3
"^Q""^:""^U""^U" x2 ||[K:F][K:treble-8] z16 x4 | z16 x2 | D8 A8 x4 | A8 G8 x4 | F4 D4 F8 | %6
w: |||Pu- *|er na-|tus est no-|
w: ||||||
[M:4/2][K:treble-8] G4 E4 F4 G6 | F2 D4 E8 D4 x4 | F6 G2 A4 G4 x4 | A4 F8 z4 x2 | A4 c6 c2 A4 x2 | %11
w: bis, * * *||na- tus est no-|* bis,|Et fi- li- us|
w: * pu- er na-|tus est no- bis,||||
 B6 A2 F4 x4 | G8 F4 d6 | c2 A4 B4 c4 z4 x4 | F4 G4 A4 B2 A2 x8 | G4 A4 B4 c2 B2 x4 | %16
w: da- tus est|no- bis, da-|tus est no- bis,|Cu- jus im- pe- ri-|um su- per hu- me-|
w: |||||
 A4 B2 c2 A4 G8 | F8 x12 | z8 G4 A4 | B4 c2 B2 A4 B6 | c4 d4 c2 =B4 c6 | d4 e3 c de f6 | e2 d8 x6 | %23
w: rum e- * * *|jus,|cu- jus|im- pe- ri- um su-|per hu- me~- ~rum e-|||
w: |||||||
 e16 | z8 z4 c4 | B4 A6 B2 G4 | A6 G2 F6 E2 x2 | D8 z4 c4 x | B4 A6 B2 G4 | z4 c4 d4 f6 x2 | %30
w: jus,|Et|vo- ca- bi- tur|no- men e- *|jus, et|vo- ca- bi- tur,|et vo- ca-|
w: |||||||
 d2 e4 f6 e2 d2 | c2 d8 ^c4 d8 | z8 x8 | z4 c4 =B4 c2 A4 x2 |"^(  )" B2 G4 A4 =B4 c4 | %35
w: bi- tur no- men e|* * * jus,||ma- gni con- si-|li- i An- ge- lus,|
w: |||||
 G4 c4 d2 e4 f2 x8 | d4 e6 e2 e4 x4 | d8 c4 x12 | =B8 z8 x2 | c4 A4 =B2 c4 e2 x6 | %40
w: ||An- ge-|lus,|ma- gni con- si- li-|
w: ma- gni con- si- li-|i An- ge- lus,||||
 d4 d2 e4 f2 d4 x2 | c3 B A2 G2 c4 A4 | G4 E2 F2 G2 A2 B4 | A8 A8 | G4 G2 B4 B2 A4 |] %45
w: i, con- si- li- i|An- * * * * ge-|lus, An * * * ge-|lus, ma-|gni con- si- li- i|
w: |||||
 A2 G2 F4 E4 A4 |"A" x16 x | z16 | D4 F8 G4 x | A6 A2 D4 x4- | x2 c2 A4 B8 | A4 z2 F4 F2 A2 G2 | %52
w: An * * * ge-|||Can- ta- te|Do- mi- no can-|ti- cum no-|vum, qui- a mi- ra-|
w: |||||||
 A3 A F4 z2 G4 G2 | d2 ^c2 d3 d A4 B2 A2 x || D4 F3 G A3 G E3 F | GABA G4 F8 | z4 A6 A2 E4 | %57
w: bi- li- a, qui- a|mi- ra- bi- li- a fe- *|cit, mi- ra- bi- li- a fe-|* * * * * cit.|Glo- ri- a|
w: |||||
 F8 E8 x4 | F8 B6 B2 x2 | c8 d4 c6 x2 | A2 d8 B4 A8 | G8 x8 | z4 B8 A4 | G4 G2 c4 A2 d3 G | %64
w: Pa- tri|et Fi- li-|o, et Spi-|ri- tu- i san-|cto,|Si- cut|e- rat in prin- ci- pi-|
w: |||||||
 G8 z4 c4 x8 | _e6 !courtesy!_e2 d4 G4 | z4 D4 F6 E2 x8 | D8 E8 | A6 B2 c4 d4 x4 | e8 z8 x4 | %70
w: o, et|nunc et sem- per,|||et in sæ- cu-|la,|
w: ||et nunc et|sem- per,|||
 z8 z4 A6 | B2 c6 B2 A4 x6 | =B6 c2 d4"^(  )" _B4 x4 | A8 D8 x8 | c6 d2 e6 d2 x2 | %75
w: et|in sæ- cu- la|sæ- cu- lo- rum|A- men,|sæ- cu- lo- rum|
w: |||||
 c2 B2 c6 F2 A8 |] G2 F2 E4 A4"^-" x16 |] %77
w: A * * * *||
w: ||
V:4
"^Q""^Q""^:""^U""^U" x2 ||[K:F][K:bass] z16 x4 | z16 x2 | z16 x4 | z8 G,,8 x4 | D,8 D,8 | %6
w: ||||Pu-|* er|
w: ||||||
[M:4/2] C,8 B,,4 G,,4 x2 | A,,4 B,,4 A,,8 x6 | z4 D,4 F,6 F,2 x4 | E,4 F,6 F,2 B,,4 x2 | %10
w: na- tus est|no- * bis,|Et fi- li-|us da- tus est|
w: ||||
 D,8 C,8 x2 | D,6 D,2 C,8 | C,8 D,2 C,2 D,2 E,2 x2 | F,8 z8 x6 | D,8 E,4 F,4 x8 | %15
w: no- bis,|da- tus est|no- * * * *|bis,|Cu- jus im-|
w: |||||
 G,2 F,2 E,4 F,4 G,4 x4 | A,2 G,2 F,4 E,4 F,8 | E,4 D,8 x8 | C,8 z4 C,4 | D,4 E,4 F,2 E,2 D,4 x2 | %20
w: pe- ri- um su- per|hu- me- rum e- *||jus, cu-|jus im- pe- ri- um|
w: |||||
 E,4 F,4 G,6 F,2 x4 | E,4 F,4 G,4 A,2 G,2 | F,8 G,8 | C,16 | z8 z4 C,4 | D,4 F,6 D,2 E,4 | %26
w: su- per hu- me-|rum, su- per hu- me-|rum e-|jus,|Et|vo- ca- bi- tur|
w: ||||||
 F,4 C,4 D,6 C,2 x2 | B,,8 A,,4 A,4 x | G,4 F,6 G,2 E,4 | D,4 A,,4 D,8 x4 | C,8 D,6 C,2 | %31
w: no- men e- *|* jus, et|vo- ca- bi- tur|no- men e-|jus no- men|
w: |||||
 B,,8 A,,8 x6 | z4 D,4 E,4 F,2 x2- | x2 E,2 F,4 G,4 C,4 x4 | C,8 z8 x2 | z4 C,4 A,,4 =B,,2 C,4 x6 | %36
w: e- jus,|ma- gni con- si-|li- i An- ge-|lus,|ma- gni con- si-|
w: |||||
 D,2 =B,,4 C,12 x2 | D,4 x8- x12 | x8 F,6 G,2 x2 | A,4 F,4 E,4 C,4 x6 | D,3 D, G,,4 G,6 G,2 x2 | %41
w: li- i An-|ge- lus,\_\_\_|An- ge-|lus, ma- gni con-|si- li- i An- ge-|
w: |||||
 C,8 C,4 D,4 | =B,,4 C,6 C,2 G,,4 | A,,6 B,,2 C,4 D,4 | G,,4 G,,8 A,,4 |] F,,6 G,,2 A,,4 A,,4 | %46
w: lus, * *||An- * * *|ge- lus,] An-|* * * ge-|
w: * ma- gni|con- si- li- i||||
"B""^[fine]" x16 x |[M:4/2] z16 | z17 | z16 |[M:4/2] z16 | z16 |[M:4/2] z16 | z16 x ||[M:4/2] z16 | %55
w: |||||||||
w: |||||||||
 z16 |[M:4/2] z4 D,6 D,2 ^C,4 | D,8 A,,8 x4 | D,8 G,6 G,2 x2 | F,8 D,4 A,8 | B,4 F,4 G,4 D,8 x2 | %61
w: |Glo- ri- a|Pa- tri|et Fi- li-|o, et Spi-|ri- tu- i san-|
w: ||||||
 G,,8 x8 | z4 G,8 ^F,4 | G,4 E,4 F,4 G,4 | C,12 C,4 x8 | C,8 G,,8 | D,6 C,2 B,,16 | A,,16 | %68
w: cto,|Si- cut|e- rat in prin-|ci- pi-|o, et|nunc et sem-|per,|
w: |||||||
 z8 z4 C,8 | D,4 F,4 G,4 A,8 | F,16 x2 | E,8 D,12 | D,4 B,,8 A,,8 | G,,8"^-" x16- | x16 x2 | %75
w: et|in sæ- cu- la|sæ-|cu- lo-|rum. A- men,|A- *||
w: |||||||
"^[da capo Puer Natus al fine]""^-" x16 x4 |] x28 |] %77
w: ||
w: ||

